X: 11
T: Drag Her Round The Road
R: reel
M: 4/4
L: 1/8
K: Emin
GA|BEED E2DE|GEDE G3A|BEED E2DE|GABG A2 GA|
BEED E2 DE|GEDE G3A|BEED E2DE|GABG A4||
|G3F GBdB|cBAB cded|B3A GBde|dBGB AGED|
G3F GBdB|cBAB cdef|gedB c2 ge| dBGB A4||


Tune 1148	Setting 14418

